alura/assets/api/cursos/aprender-a-aprender-tecnicas-para-seu-autodesenvolvimento.svg

<svg xmlns="http://www.w3.org/2000/svg" viewBox="0 0 50 50"><path fill="#bee367" d="M47.7 18.3l-2.6-6.4-8.3-3-4.2-1.4L2.1 18.6l4 9.6 8.2.1 1.4 2.2 32-11.7z"/><path fill="#d4ff73" d="M28 6l-8.4-.8L7 10.7l-4.9 7.9L32.6 7.5z"/><path fill="#464646" d="M49 23.7c-.5-.5-1.3-.5-1.8 0L43 27.8l-1.6-1.5c.1-.3.2-.6.2-1s-.1-.8-.3-1.1l6.2-4.8c.2 0 .4 0 .6-.1.6-.3 1-1 .7-1.6L46 10.8l-8.9-3.2-8.8-2.9-8.9-.8L6.1 9.7.7 18.4H.6l4.6 11h7.9c.2.1.3.2.5.2l3.2 5.2 8.4.8L37 46.1l-.3-10.9 6.5-1.1 1.2-4.1 4.6-4.5c.5-.5.5-1.3 0-1.8zm-2.6-5.2l-6.3 4.8c-.2-.1-.4-.1-.6-.1h-.1l-3.1-7.9c.2-.2.3-.4.3-.7l7.9-1 1.9 4.9zM30.6 33.3l-4.3-2.1 2.9-4.1 1.4 6.2zm-.1-9.1c0-.1 0 0 0 0zm-.6-2s-.1 0 0 0c-.1 0-.1 0 0 0-.5 0-.9.1-1.3.3L24.3 17c.1-.2.2-.5.2-.7L33 15c.1.2.2.4.4.5l-3.5 6.7zm-15.6 3.5h-.2l-1.6-9.4c.4-.2.8-.6 1-1l6.4.9c0 .5.2.9.4 1.2l-5.4 8.3h-.6zm7.2-7.4c.2.1.4.1.7.1.4 0 .8-.1 1.1-.3l4.3 5.5c-.1.2-.1.5-.2.7l-11.3 2.3 5.4-8.3zm13.3-2.2h.2l3.1 7.7-.3.3h-5.7c-.1-.5-.3-.9-.7-1.3-.1-.1-.1-.1-.2-.1l3.6-6.6zm1.5-6.1l6.6 2.4-6.5.8c-.3-.5-.9-.9-1.6-.9-.2 0-.4 0-.5.1l-4-4.3 6 1.9zm-8.9-2.9l5.7 6.1c0 .1-.1.1-.1.2l-8.8 1.4c-.4-.7-1.2-1.2-2-1.2l-2.3-7.2 7.5.7zm-6.6 7.1c-.2.2-.4.4-.5.6l-6.6-1c-.1-.2-.2-.5-.3-.7l5.3-6 2.1 7.1zm-13-2.6l7.7-3.3-3.5 4h-.4c-1.2 0-2.1.9-2.1 2.1L5 16.5l2.8-4.9zm2.1 4.2c0 .1.1.1.1.2.3.3.6.4.9.5l1.6 9.4-9.1-7.2 6.5-2.9zM7 27l-2.3-5.4 6.9 5.4H7zm11.4 5.5l-1.8-2.8 8 2.4.1 1.1-6.3-.7zm6.5-2l-.4-.2v.1l-8-2.3 11.3-2.3c.1.1.1.2.2.3l-3.1 4.4zm1.6 2.7h-.2v-.4l4.9 2.4 1.5 3.6-6.2-5.6zm5.9 1.2l-1.1-5 3 5 .1 4.5-2-4.5zm8.8-2.6l-1.6.3 1.9-1.4-.3 1.1zm-4.9.9l-1.2.2-3.9-6.5c.3-.2.5-.5.7-.7h5.6c.1 1 1 1.8 2.1 1.8.3 0 .5-.1.8-.2l1.4 1.3-5.5 4.1z"/></svg>

<?xml version="1.0" encoding="utf-8"?>
<!-- Generator: Adobe Illustrator 22.0.1, SVG Export Plug-In . SVG Version: 6.00 Build 0)  -->
<svg version="1.1" id="Layer_1" xmlns="http://www.w3.org/2000/svg" xmlns:xlink="http://www.w3.org/1999/xlink" x="0px" y="0px"
	 viewBox="0 0 50 50" style="enable-background:new 0 0 50 50;" xml:space="preserve">
<style type="text/css">
	.st0{fill:#BEE367;}
	.st1{fill:#D4FF73;}
	.st2{fill:#464646;}
</style>
<title>abap</title>
<g>
	<g>
		<polygon class="st0" points="47.7,18.3 45.1,11.9 36.8,8.9 32.6,7.5 2.1,18.6 6.1,28.2 14.3,28.3 15.7,30.5 47.7,18.8 		"/>
	</g>
	<g>
		<polygon class="st1" points="28,6 19.6,5.2 7,10.7 2.1,18.6 2.1,18.6 32.6,7.5 		"/>
	</g>
	<path class="st2" d="M49,23.7c-0.5-0.5-1.3-0.5-1.8,0L43,27.8l-1.6-1.5c0.1-0.3,0.2-0.6,0.2-1c0-0.4-0.1-0.8-0.3-1.1l6.2-4.8
		c0.2,0,0.4,0,0.6-0.1c0.6-0.3,1-1,0.7-1.6l-2.8-6.9l-8.9-3.2l-8.8-2.9l-8.9-0.8L6.1,9.7l-5.4,8.7l-0.1,0l0,0l0,0l4.6,11l7.9,0
		c0.2,0.1,0.3,0.2,0.5,0.2l3.2,5.2l8.4,0.8L37,46.1l-0.3-10.9l6.5-1.1l1.2-4.1l4.6-4.5C49.5,25,49.5,24.2,49,23.7z M46.4,18.5
		l-6.3,4.8c-0.2-0.1-0.4-0.1-0.6-0.1c0,0-0.1,0-0.1,0l-3.1-7.9c0.2-0.2,0.3-0.4,0.3-0.7l7.9-1L46.4,18.5z M30.6,33.3l-4.3-2.1
		l2.9-4.1L30.6,33.3z M30.5,24.2L30.5,24.2C30.5,24.1,30.5,24.2,30.5,24.2L30.5,24.2z M29.9,22.2C29.9,22.2,29.8,22.2,29.9,22.2
		C29.8,22.2,29.8,22.2,29.9,22.2c-0.5,0-0.9,0.1-1.3,0.3L24.3,17c0.1-0.2,0.2-0.5,0.2-0.7L33,15c0.1,0.2,0.2,0.4,0.4,0.5L29.9,22.2z
		 M14.3,25.7C14.3,25.7,14.3,25.7,14.3,25.7c-0.1,0-0.1,0-0.2,0l-1.6-9.4c0.4-0.2,0.8-0.6,1-1l6.4,0.9c0,0.5,0.2,0.9,0.4,1.2
		l-5.4,8.3C14.7,25.7,14.5,25.7,14.3,25.7z M21.5,18.3c0.2,0.1,0.4,0.1,0.7,0.1c0.4,0,0.8-0.1,1.1-0.3l4.3,5.5
		c-0.1,0.2-0.1,0.5-0.2,0.7l-11.3,2.3L21.5,18.3z M34.8,16.1C34.8,16.1,34.8,16.1,34.8,16.1c0.1,0,0.2,0,0.2,0l3.1,7.7
		c-0.1,0.1-0.2,0.2-0.3,0.3l-5.7,0c-0.1-0.5-0.3-0.9-0.7-1.3c-0.1-0.1-0.1-0.1-0.2-0.1L34.8,16.1z M36.3,10l6.6,2.4l-6.5,0.8
		c-0.3-0.5-0.9-0.9-1.6-0.9c-0.2,0-0.4,0-0.5,0.1l-4-4.3L36.3,10z M27.4,7.1l5.7,6.1c0,0.1-0.1,0.1-0.1,0.2l-8.8,1.4
		c-0.4-0.7-1.2-1.2-2-1.2c0,0,0,0,0,0l-2.3-7.2L27.4,7.1z M20.8,14.2c-0.2,0.2-0.4,0.4-0.5,0.6l-6.6-1c-0.1-0.2-0.2-0.5-0.3-0.7
		l5.3-6L20.8,14.2z M7.8,11.6l7.7-3.3l-3.5,4c-0.1,0-0.3,0-0.4,0c-1.2,0-2.1,0.9-2.1,2.1l-4.5,2.1L7.8,11.6z M9.9,15.8
		c0,0.1,0.1,0.1,0.1,0.2c0.3,0.3,0.6,0.4,0.9,0.5l1.6,9.4l-9.1-7.2L9.9,15.8z M7,27l-2.3-5.4l6.9,5.4L7,27z M18.4,32.5l-1.8-2.8
		l8,2.4l0.1,1.1L18.4,32.5z M24.9,30.5l-0.4-0.2l0,0.1l-8-2.3l11.3-2.3c0.1,0.1,0.1,0.2,0.2,0.3L24.9,30.5z M26.5,33.2l-0.2,0l0-0.4
		l4.9,2.4l1.5,3.6L26.5,33.2z M32.4,34.4l-1.1-5l3,5l0.1,4.5L32.4,34.4z M41.2,31.8l-1.6,0.3l1.9-1.4L41.2,31.8z M36.3,32.7
		l-1.2,0.2l-3.9-6.5c0.3-0.2,0.5-0.5,0.7-0.7l5.6,0c0.1,1,1,1.8,2.1,1.8c0.3,0,0.5-0.1,0.8-0.2l1.4,1.3L36.3,32.7z"/>
</g>
</svg>
